src/pos-icons/language-swift.svg

<svg height="24" viewBox="0 0 24 24" width="24" xmlns="http://www.w3.org/2000/svg"><path d="m17.09 19.72c-2.36 1.36-5.59 1.5-8.86.1-2.64-1.12-4.83-3.08-6.23-5.32.67.55 1.46 1 2.3 1.4 3.37 1.57 6.73 1.46 9.1 0-3.37-2.59-6.24-5.96-8.37-8.71-.45-.45-.78-1.01-1.12-1.51 8.28 6.05 7.92 7.59 2.41-1.01 4.89 4.94 9.43 7.74 9.43 7.74.16.09.25.16.36.22.1-.25.19-.51.26-.78.79-2.85-.11-6.12-2.08-8.81 4.55 2.75 7.25 7.91 6.12 12.24-.03.11-.06.22-.05.39 2.24 2.83 1.64 5.78 1.35 5.22-1.21-2.39-3.48-1.65-4.62-1.17z"/></svg>

<?xml version="1.0" encoding="UTF-8"?><!DOCTYPE svg PUBLIC "-//W3C//DTD SVG 1.1//EN" "http://www.w3.org/Graphics/SVG/1.1/DTD/svg11.dtd"><svg xmlns="http://www.w3.org/2000/svg" xmlns:xlink="http://www.w3.org/1999/xlink" version="1.1" id="mdi-language-swift" width="24" height="24" viewBox="0 0 24 24"><path d="M17.09,19.72C14.73,21.08 11.5,21.22 8.23,19.82C5.59,18.7 3.4,16.74 2,14.5C2.67,15.05 3.46,15.5 4.3,15.9C7.67,17.47 11.03,17.36 13.4,15.9C10.03,13.31 7.16,9.94 5.03,7.19C4.58,6.74 4.25,6.18 3.91,5.68C12.19,11.73 11.83,13.27 6.32,4.67C11.21,9.61 15.75,12.41 15.75,12.41C15.91,12.5 16,12.57 16.11,12.63C16.21,12.38 16.3,12.12 16.37,11.85C17.16,9 16.26,5.73 14.29,3.04C18.84,5.79 21.54,10.95 20.41,15.28C20.38,15.39 20.35,15.5 20.36,15.67C22.6,18.5 22,21.45 21.71,20.89C20.5,18.5 18.23,19.24 17.09,19.72V19.72Z" /></svg>
